X: 22415
T: Ladies Of Carrick, The
R: jig
M: 6/8
K: Amixolydian
|:f|eAA ecc|eAA a2f|eAA ece|fdB g2f|
eAA ecc|Ace efg|fdf ece|fdB ~g2:|
|:f|ece a>^ga|ece a2f|ece a>^ga|fdB ~g2f|
ece a>^ga|cee efg|fdf ece|fdB ~g2:|

